public/images/icons/man.svg

<svg width="27" height="28" viewBox="0 0 27 28" fill="none" xmlns="http://www.w3.org/2000/svg"><path d="M2.90278 27.3125H0V25.875C0.00639865 20.3203 4.55132 15.8188 10.1597 15.8125H15.9653C21.5737 15.8188 26.1186 20.3203 26.125 25.875V27.3125H23.2222V25.875C23.2174 21.9074 19.9712 18.6923 15.9653 18.6875H10.1597C6.15381 18.6923 2.90758 21.9074 2.90278 25.875V27.3125ZM13.0625 14.375C9.0546 14.375 5.80556 11.157 5.80556 7.1875C5.80556 3.21795 9.0546 0 13.0625 0C17.0704 0 20.3194 3.21795 20.3194 7.1875C20.3146 11.1551 17.0684 14.3702 13.0625 14.375ZM13.0625 2.875C10.6578 2.875 8.70833 4.80577 8.70833 7.1875C8.70833 9.56923 10.6578 11.5 13.0625 11.5C15.4672 11.5 17.4167 9.56923 17.4167 7.1875C17.4167 4.80577 15.4672 2.875 13.0625 2.875Z" fill="white"/></svg>

<svg xmlns="http://www.w3.org/2000/svg" width="27" height="28" fill="none"><path fill="#fff" d="M2.903 27.313H0v-1.438c.006-5.555 4.551-10.056 10.16-10.062h5.805c5.609.006 10.154 4.507 10.16 10.062v1.438h-2.903v-1.438c-.005-3.968-3.25-7.183-7.257-7.187H10.16c-4.006.004-7.252 3.22-7.257 7.187zm10.16-12.938c-4.008 0-7.257-3.218-7.257-7.187S9.055 0 13.063 0s7.256 3.218 7.256 7.188c-.004 3.967-3.25 7.182-7.256 7.187m0-11.5c-2.405 0-4.355 1.93-4.355 4.313 0 2.381 1.95 4.312 4.355 4.312 2.404 0 4.354-1.93 4.354-4.312s-1.95-4.313-4.355-4.313"/></svg>
